X: 19
T:Kitty Magee
M:6/8
L:1/8
F:http://www.arcelts.com/bbot1/t391.abc 2007-02-04 09:38:49 UT
K:D
A|"D"d2 d AFA|d3 "A"efg|"D"f2 d "A"e2 d|cec ABc|\
"D"d2 d AFA|d3 "A"efg|"D"f2 d "A"e2 c|"D"ddd d2:|
|:A|"D"d2 f agf|"Em"e2 f g3|"D"f2 d "A"e2 d|cec A3|\
"D"aaa g2 f|"Em"e2 f g3|"D"f2 d "A"e2 c|"D"ddd d2:|
